X:1
T: Trails of Kubinek
N:
C:Keith Murphy
S:
A:
O:
R:
M:4/4
K:G
I:speed 180
%W:
% voice 1 (1 lines, 33 notes)
K:G
M:4/4
L:1/16
D8 c8 |B6 c2 B2 A2 G4 |D6 c2c2 B2 c2 d2|d6 B2 c2 B2 A2 G2 |D8 c8 |B6 c2 B2 A2 G4 |A6 F2F2 E2 F2 G2|G16 |
%W:
% voice 1 (1 lines, 35 notes)
D8 c8 |B6 c2 B2 A2 G4 |D6 c2c2 B2 c2 d2|d6 B2 c2 B2 A2 G2 |D8 c8 |B6 c2 B2 A2 G4 |A6 F2F2 E2 F2 G2|G8 B4 c4 |
%W:
% voice 1 (1 lines, 30 notes)
d8 e8 |d6 B2 c2 B2 A2 G2 |A6 B2B4 c4 |d8 B4 c4 |d8 e8 |d6 B2 c2 B2 A2 G2 |A6 F2F2 E2 F2 G2|G16 |
%W:
% voice 1 (1 lines, 30 notes)
d8 e8 |d6 B2 c2 B2 A2 G2 |A6 B2B4 c4 |d8 B4 c4 |d8 e8 |d6 B2 c2 B2 A2 G2 |A6 F2F2 E2 F2 G2|G16 |
